X:1
T:A U Hinny Burd
L:1/8
M:2/4
S: Bruce & Stokoe - Northumbrian Minstrelsy  (1882)
Z:AK/Fiddler's Companion
K:C
G|c2 ec|B2d2|G2 (Bc)|dg BG|cc ec|B2d2|G2 (AB)|c3||c|
(fe) df|ee c2|G2 (Bc)|dg (BG)|fe df|ee c2|G2 (AB)|c3||
'A' WALTZ. Old-Time, Waltz. USA, Missouri. A Major. Missouri State Old Time Fiddlers' Association, Pete McMahon - "Kansas City Rag."

